SVG_Azure_All/Peering Service.svg

<?xml version="1.0" encoding="UTF-8" standalone="no"?>
<!-- Generated by Microsoft Visio, SVG Export Peering Service.svg Page-1 -->

<svg
   xmlns:dc="http://purl.org/dc/elements/1.1/"
   xmlns:cc="http://creativecommons.org/ns#"
   xmlns:rdf="http://www.w3.org/1999/02/22-rdf-syntax-ns#"
   xmlns:svg="http://www.w3.org/2000/svg"
   xmlns="http://www.w3.org/2000/svg"
   xmlns:sodipodi="http://sodipodi.sourceforge.net/DTD/sodipodi-0.dtd"
   xmlns:inkscape="http://www.inkscape.org/namespaces/inkscape"
   width="0.78741688in"
   height="0.79408783in"
   viewBox="0 0 56.693923 57.174508"
   xml:space="preserve"
   class="st5"
   version="1.1"
   id="svg40"
   sodipodi:docname="Peering Service.svg"
   style="font-size:12px;overflow:visible;color-interpolation-filters:sRGB;fill:none;fill-rule:evenodd;stroke-linecap:square;stroke-miterlimit:3"
   inkscape:version="0.92.5 (2060ec1f9f, 2020-04-08)"><metadata
   id="metadata44"><rdf:RDF><cc:Work
       rdf:about=""><dc:format>image/svg+xml</dc:format><dc:type
         rdf:resource="http://purl.org/dc/dcmitype/StillImage" /></cc:Work></rdf:RDF></metadata><sodipodi:namedview
   pagecolor="#ffffff"
   bordercolor="#666666"
   borderopacity="1"
   objecttolerance="10"
   gridtolerance="10"
   guidetolerance="10"
   inkscape:pageopacity="0"
   inkscape:pageshadow="2"
   inkscape:window-width="640"
   inkscape:window-height="480"
   id="namedview42"
   showgrid="false"
   inkscape:zoom="1.4140136"
   inkscape:cx="37.795212"
   inkscape:cy="38.115085"
   inkscape:window-x="0"
   inkscape:window-y="0"
   inkscape:window-maximized="0"
   inkscape:current-layer="svg40" />
	<style
   type="text/css"
   id="style2">
	<![CDATA[
		.st1 {fill:url(#grad0-6);stroke:none;stroke-linecap:butt;stroke-width:34}
		.st2 {fill:#0078d4;stroke:none;stroke-linecap:butt;stroke-width:34}
		.st3 {fill:#83b9f9;stroke:none;stroke-linecap:butt;stroke-width:34}
		.st4 {fill:#42e8ca;stroke:none;stroke-linecap:butt;stroke-width:34}
		.st5 {fill:none;fill-rule:evenodd;font-size:12px;overflow:visible;stroke-linecap:square;stroke-miterlimit:3}
	]]>
	</style>

	<defs
   id="Patterns_And_Gradients">
		<linearGradient
   id="grad0-6"
   x1="-3.5395535e-15"
   y1="81.126815"
   x2="44.514292"
   y2="81.126815"
   gradientTransform="scale(1.003718,0.99629573)"
   gradientUnits="userSpaceOnUse">
			<stop
   offset="0"
   stop-color="#0078d4"
   stop-opacity="1"
   id="stop4" />
			<stop
   offset="1"
   stop-color="#005ba1"
   stop-opacity="1"
   id="stop6" />
		</linearGradient>
	</defs>
	<g
   id="g38"
   transform="translate(-34.000304,-33.9999)">
		<title
   id="title10">Page-1</title>
		<g
   id="group2340-1"
   transform="translate(34,-34.4828)">
			<title
   id="title12">Peering Service</title>
			<g
   id="group2341-2">
				<title
   id="title14">Sheet.2341</title>
				<g
   id="shape2342-3"
   transform="translate(0,-12.3436)">
					<title
   id="title16">Sheet.2342</title>
					<ellipse
   cx="22.339899"
   cy="103.001"
   rx="22.339899"
   ry="22.1747"
   class="st1"
   id="ellipse18"
   style="fill:url(#grad0-6);stroke:none;stroke-width:34;stroke-linecap:butt" />
				</g>
				<g
   id="shape2343-7"
   transform="translate(13.4276)">
					<title
   id="title21">Sheet.2343</title>
					<ellipse
   cx="21.3894"
   cy="103.944"
   rx="21.3894"
   ry="21.2313"
   class="st2"
   id="ellipse23"
   style="fill:#0078d4;stroke:none;stroke-width:34;stroke-linecap:butt" />
				</g>
				<g
   id="shape2344-9"
   transform="translate(12.9242,-1.03869)">
					<title
   id="title26">Sheet.2344</title>
					<path
   d="m 43.77,104.27 h -0.04 a 21.8727,21.7109 -180 1 0 0,1.43 h 0.04 z m -9.07,0 a 25.124,24.9381 -180 0 0 -1.76,-9.04 h 6.86 a 20.3238,20.1735 0 0 1 2.5,9.04 z M 1.5,105.7 h 7.89 a 25.0568,24.8714 -180 0 0 1.8,9.04 H 3.99 A 20.2694,20.1195 0 0 1 1.5,105.7 Z M 21.6,93.8 h -8 a 24.7175,24.5347 0 0 1 8,-7.83 z m 1.44,-7.83 a 22.7015,22.5336 0 0 1 7.65,7.83 h -7.65 z m -1.44,9.26 v 9.04 H 10.82 a 21.8119,21.6505 0 0 1 2.07,-9.04 z M 9.38,104.27 H 1.5 a 20.2822,20.1322 0 0 1 2.49,-9.04 h 7.32 a 23.5655,23.3912 -180 0 0 -1.93,9.04 z m 1.45,1.43 H 21.6 v 9.04 h -8.79 a 23.2071,23.0355 0 0 1 -1.98,-9.04 z m 10.77,10.48 v 8.29 a 23.8759,23.6993 0 0 1 -8.1,-8.29 z m 1.44,0 h 7.53 a 23.5175,23.3436 0 0 1 -7.53,7.93 z m 0,-1.43 v -9.05 h 10.22 a 23.2071,23.0355 0 0 1 -1.98,9.04 z m 0,-10.48 v -9.04 h 8.33 a 23.3607,23.1879 0 0 1 1.88,9.04 z M 38.92,93.79 h -6.67 a 23.7735,23.5977 -180 0 0 -8.39,-8.99 20.4454,20.2942 0 0 1 15.06,9 z M 20.86,84.77 A 25.6008,25.4114 -180 0 0 12.03,93.8 H 4.86 a 20.4134,20.2624 0 0 1 16,-9.03 z m -16,31.41 h 7.04 a 24.4743,24.2933 -180 0 0 8.19,9 20.439,20.2879 0 0 1 -15.23,-9 z m 19.17,8.97 a 24.4775,24.2965 -180 0 0 8.15,-8.97 h 6.72 a 20.4486,20.2974 0 0 1 -14.86,8.97 z m 15.76,-10.41 h -6.9 a 25.0568,24.8714 -180 0 0 1.81,-9.04 h 7.6 a 20.3078,20.1576 0 0 1 -2.5,9.04 z"
   class="st3"
   id="path28"
   inkscape:connector-curvature="0"
   style="fill:#83b9f9;stroke:none;stroke-width:34;stroke-linecap:butt" />
				</g>
				<g
   id="shape2345-11"
   transform="translate(12.6243,-17.4991)">
					<title
   id="title31">Sheet.2345</title>
					<path
   d="m 22.22,116.74 a 4.92175,4.88535 -180 0 0 -2.12,0.49 L 7.17,101.43 a 5.03375,4.99652 -180 1 0 -2.26,1.74 l 13.05,15.97 a 4.92495,4.88852 -180 0 0 -0.73,2.54 4.98255,4.9457 -180 1 0 4.98,-4.95 z"
   class="st4"
   id="path33"
   inkscape:connector-curvature="0"
   style="fill:#42e8ca;stroke:none;stroke-width:34;stroke-linecap:butt" />
				</g>
			</g>
		</g>
	</g>
</svg>

<?xml version="1.0" encoding="UTF-8" standalone="no"?>
<!DOCTYPE svg PUBLIC "-//W3C//DTD SVG 1.1//EN" "http://www.w3.org/Graphics/SVG/1.1/DTD/svg11.dtd">
<!-- Generated by Microsoft Visio, SVG Export Peering Service.svg Page-1 -->
<svg xmlns="http://www.w3.org/2000/svg" xmlns:xlink="http://www.w3.org/1999/xlink" xmlns:ev="http://www.w3.org/2001/xml-events"
		width="1.73185in" height="1.73855in" viewBox="0 0 124.693 125.176" xml:space="preserve" color-interpolation-filters="sRGB"
		class="st5">
	<style type="text/css">
	<![CDATA[
		.st1 {fill:url(#grad0-6);stroke:none;stroke-linecap:butt;stroke-width:34}
		.st2 {fill:#0078d4;stroke:none;stroke-linecap:butt;stroke-width:34}
		.st3 {fill:#83b9f9;stroke:none;stroke-linecap:butt;stroke-width:34}
		.st4 {fill:#42e8ca;stroke:none;stroke-linecap:butt;stroke-width:34}
		.st5 {fill:none;fill-rule:evenodd;font-size:12px;overflow:visible;stroke-linecap:square;stroke-miterlimit:3}
	]]>
	</style>

	<defs id="Patterns_And_Gradients">
		<linearGradient id="grad0-6" x1="0" y1="0" x2="1" y2="0" gradientTransform="rotate(90 0.5 0.5)">
			<stop offset="0" stop-color="#0078d4" stop-opacity="1"/>
			<stop offset="1" stop-color="#005ba1" stop-opacity="1"/>
		</linearGradient>
	</defs>
	<g>
		<title>Page-1</title>
		<g id="group2325-1" transform="translate(34,-34.4828)">
			<title>Peering Service</title>
			<g id="group2326-2">
				<title>Sheet.2326</title>
				<g id="shape2327-3" transform="translate(-2.79776E-13,-12.3436)">
					<title>Sheet.2327</title>
					<ellipse cx="22.3399" cy="103.001" rx="22.3399" ry="22.1747" class="st1"/>
				</g>
				<g id="shape2328-7" transform="translate(13.4276,0)">
					<title>Sheet.2328</title>
					<ellipse cx="21.3894" cy="103.944" rx="21.3894" ry="21.2313" class="st2"/>
				</g>
				<g id="shape2329-9" transform="translate(12.9242,-1.03869)">
					<title>Sheet.2329</title>
					<path d="M43.77 104.27 L43.73 104.27 A21.8727 21.7109 -180 1 0 43.73 105.7 L43.77 105.7 L43.77 104.27 ZM34.7
								 104.27 A25.124 24.9381 -180 0 0 32.94 95.23 L39.8 95.23 A20.3238 20.1735 0 0 1 42.3 104.27 L34.7
								 104.27 ZM1.5 105.7 L9.39 105.7 A25.0568 24.8714 -180 0 0 11.19 114.74 L3.99 114.74 A20.2694 20.1195
								 0 0 1 1.5 105.7 ZM21.6 93.8 L13.6 93.8 A24.7175 24.5347 0 0 1 21.6 85.97 L21.6 93.8 ZM23.04 85.97
								 A22.7015 22.5336 0 0 1 30.69 93.8 L23.04 93.8 L23.04 85.97 ZM21.6 95.23 L21.6 104.27 L10.82 104.27
								 A21.8119 21.6505 0 0 1 12.89 95.23 L21.6 95.23 ZM9.38 104.27 L1.5 104.27 A20.2822 20.1322 0 0 1
								 3.99 95.23 L11.31 95.23 A23.5655 23.3912 -180 0 0 9.38 104.27 ZM10.83 105.7 L21.6 105.7 L21.6 114.74
								 L12.81 114.74 A23.2071 23.0355 0 0 1 10.83 105.7 ZM21.6 116.18 L21.6 124.47 A23.8759 23.6993 0 0
								 1 13.5 116.18 L21.6 116.18 ZM23.04 116.18 L30.57 116.18 A23.5175 23.3436 0 0 1 23.04 124.11 L23.04
								 116.18 ZM23.04 114.75 L23.04 105.7 L33.26 105.7 A23.2071 23.0355 0 0 1 31.28 114.74 L23.04 114.75
								 ZM23.04 104.27 L23.04 95.23 L31.37 95.23 A23.3607 23.1879 0 0 1 33.25 104.27 L23.04 104.27 ZM38.92
								 93.79 L32.25 93.79 A23.7735 23.5977 -180 0 0 23.86 84.8 A20.4454 20.2942 0 0 1 38.92 93.8 L38.92
								 93.79 ZM20.86 84.77 A25.6008 25.4114 -180 0 0 12.03 93.8 L4.86 93.8 A20.4134 20.2624 0 0 1 20.86
								 84.77 ZM4.86 116.18 L11.9 116.18 A24.4743 24.2933 -180 0 0 20.09 125.18 A20.439 20.2879 0 0 1 4.86
								 116.18 ZM24.03 125.15 A24.4775 24.2965 -180 0 0 32.18 116.18 L38.9 116.18 A20.4486 20.2974 0 0 1
								 24.04 125.15 L24.03 125.15 ZM39.79 114.74 L32.89 114.74 A25.0568 24.8714 -180 0 0 34.7 105.7 L42.3
								 105.7 A20.3078 20.1576 0 0 1 39.8 114.74 L39.79 114.74 Z" class="st3"/>
				</g>
				<g id="shape2330-11" transform="translate(12.6243,-17.4991)">
					<title>Sheet.2330</title>
					<path d="M22.22 116.74 A4.92175 4.88535 -180 0 0 20.1 117.23 L7.17 101.43 A5.03375 4.99652 -180 1 0 4.91 103.17
								 L17.96 119.14 A4.92495 4.88852 -180 0 0 17.23 121.68 A4.98255 4.9457 -180 1 0 22.21 116.73 L22.22
								 116.74 Z" class="st4"/>
				</g>
			</g>
		</g>
	</g>
</svg>
